!!!!SEGMENT: Fss2001-Angele_Dei.krn
!!!id: Fss2001
!!!AGN: Motet
!!!SCT: Jeppesen (1962)
!!!voices: 4
!!!COM: Sebastiano Festa
!!!OTL: Fss2001-Angele_Dei
**kern	**kern	**kern	**kern
*part4	*part3	*part2	*part1
*staff4	*staff3	*staff2	*staff1
*I"Bassus	*I"Tenor	*I"Altus	*I"Superius
*I'B	*I'T	*I'A	*I'S
*clefF4	*clefGv2	*clefG2	*clefG2
*k[]	*k[]	*k[]	*k[]
*C:	*C:	*C:	*C:
*M2/1	*M2/1	*M2/1	*M2/1
*met(C|)	*met(C|)	*met(C|)	*met(C|)
!!section: Prima pars: Angele Dei
!!!OMD: Prima pars: Angele Dei
=1	=1	=1	=1
0A	0r	0r	0r
=2	=2	=2	=2
1A	0r	0r	0r
1A	.	.	.
=3	=3	=3	=3
1.c	0A	0r	0r
2B	.	.	.
=4	=4	=4	=4
2A	1A	0r	0r
2G	.	.	.
2F	1A	.	.
4E	.	.	.
4D	.	.	.
=5	=5	=5	=5
2E	1.c	0r	0r
2.F	.	.	.
4E	.	.	.
(2A	4B	.	.
.	4A	.	.
=6	=6	=6	=6
2A)	1G	0r	0r
2G	.	.	.
2A	[1A	.	.
[2c	.	.	.
=7	=7	=7	=7
4c]	1A]	0r	0r
4B	.	.	.
4A	.	.	.
4G	.	.	.
2F	[1d	.	.
4E	.	.	.
4D	.	.	.
=8	=8	=8	=8
2F	2d]	0r	0r
2G	4c	.	.
.	4B	.	.
2E	1c	.	.
2A	.	.	.
=9	=9	=9	=9
2F	2.d	0r	0r
2.G	.	.	.
.	4B	.	.
.	2d	.	.
4F	.	.	.
2G	2e	.	.
=10	=10	=10	=10
2A	2c	0r	0r
4G	1d	.	.
4F	.	.	.
4E	.	.	.
4D	.	.	.
2E	2c#i	.	.
=11	=11	=11	=11
1.D	1d	0a	0r
.	[1f	.	.
4C	.	.	.
4BB	.	.	.
=12	=12	=12	=12
1AA	2f]	1a	0r
.	2e	.	.
1r	2d	1a	.
.	4c	.	.
.	4B	.	.
=13	=13	=13	=13
0r	0A	1.cc	0a
.	.	2b	.
=14	=14	=14	=14
0r	0d	2a	1a
.	.	2g	.
.	.	2f	1a
.	.	4e	.
.	.	4d	.
=15	=15	=15	=15
0r	0A	2e	1.cc
.	.	2.f	.
.	.	4e	.
.	.	[2a	4b
.	.	.	4a
=16	=16	=16	=16
0r	1e	2a]	1b
.	.	2g#i	.
.	[1A	2a	[1a
.	.	[2cc	.
=17	=17	=17	=17
0r	1A]	4cc]	1a]
.	.	4b	.
.	.	4a	.
.	.	4g	.
.	1r	2f	[1dd
.	.	4e	.
.	.	4d	.
=18	=18	=18	=18
0r	0r	2f	2dd]
.	.	2g	4cc
.	.	.	4b
.	.	2e	1cc
.	.	2a	.
=19	=19	=19	=19
0r	0r	2f	2dd
.	.	2.g	2b
.	.	.	2dd
.	.	4f	.
.	.	2g	2ee
=20	=20	=20	=20
0r	0r	2a	2cc
.	.	4g	1dd
.	.	4f	.
.	.	4e	.
.	.	4d	.
.	.	2e	2cc#i
=21	=21	=21	=21
0r	0r	1d	1dd
.	.	1r	1r
=22	=22	=22	=22
[0A	[0e	[0a	[0cc
=23	=23	=23	=23
0A]	0e]	0a]	0cc]
=24	=24	=24	=24
1A	1e	1a	1cc
1d	1f	1a	1a
=25	=25	=25	=25
0B	0d	0g	1r
.	.	.	[1dd
=26	=26	=26	=26
[0A	[0e	[0a	2dd]
.	.	.	4cc#i
.	.	.	4b
.	.	.	1cc#i
=27	=27	=27	=27
0A]	0e]	0a]	1r
.	.	.	1cc
=28	=28	=28	=28
0D	0f	[0a	0dd
=29	=29	=29	=29
1A	1e	0a]	1cc
1r	2d	.	2dd
.	2A	.	[2ee
=30	=30	=30	=30
0r	2c	1a	2ee]
.	2d	.	1dd
.	1e	1g	.
.	.	.	2cc#i
=31	=31	=31	=31
0D	1d	0a	1dd
.	1f	.	1r
=32	=32	=32	=32
[0A	[0e	[0cc	[0a
=33	=33	=33	=33
0A]	0e]	0cc]	0a]
=34	=34	=34	=34
2B-X	2d	2dd	2g
2A	2c	1ee	1a
1B-i	1d	.	.
.	.	[2dd	2g
=35	=35	=35	=35
1A	1e	2dd]	0a
.	.	2cc#i	.
1D	[1d	[1dd	.
=36	=36	=36	=36
0B-X	1d]	1dd]	0r
.	[1f	1r	.
=37	=37	=37	=37
0A	1f]	0r	0r
.	2.e	.	.
.	4f	.	.
=38	=38	=38	=38
2G	4e	0r	0r
.	4d	.	.
2F	1d	.	.
1E	.	.	.
.	2c#i	.	.
=39	=39	=39	=39
0D	0d	0a	0f
=40	=40	=40	=40
0r	1A	0cc	2.e
.	.	.	4f
.	2e	.	2g
.	4d	.	4f
.	4c	.	4e
=41	=41	=41	=41
0r	0f	1dd	0a
.	.	[1cc	.
=42	=42	=42	=42
1r	0e	2cc]	1g
.	.	4b	.
.	.	4a	.
1C	.	1cc	1g
=43	=43	=43	=43
1D	2d	2b	1f
.	2c	1a	.
1E	1B	.	1e
.	.	2g	.
=44	=44	=44	=44
0F	1A	0a	1c
.	[1c	.	1r
=45	=45	=45	=45
0E	2c]	1r	0r
.	4B	.	.
.	4A	.	.
.	2c	1g	.
.	[2B	.	.
=46	=46	=46	=46
2D	2B]	1a	0r
2C	1A	.	.
1BB	.	1b	.
.	2G#i	.	.
=47	=47	=47	=47
0AA	0A	0cc	1r
.	.	.	2r
.	.	.	[2a
=48	=48	=48	=48
0r	0e	0b	2a]
.	.	.	4g#i
.	.	.	4f#i
.	.	.	1g#i
=49	=49	=49	=49
0r	1A	0a	1r
.	2r	.	1cc
.	2A	.	.
=50	=50	=50	=50
0r	4B	2g	1dd
.	4c	.	.
.	1d	2f	.
.	.	1e	1ee
.	2c	.	.
=51	=51	=51	=51
0r	2.d	4d	1.ff
.	.	4e	.
.	.	4f	.
.	4e	4g	.
.	2f	2a	.
.	2g	2b	4ee
.	.	.	4dd
=52	=52	=52	=52
0r	2d	2a	2ff
.	2.g	2.b	1ee
.	4f	4a	.
.	4e	[2a	[2dd
.	4d	.	.
=53	=53	=53	=53
1r	1e	2a]	2dd]
.	.	2g	2cc#i
[1D	[1d	[1a	[1dd
=54	=54	=54	=54
0D_	1d]	0a_	1dd]
.	[1f	.	[1dd
=55	=55	=55	=55
1D]	1f]	1a]	1dd]
[1A	[1e	[1a	[1cc
=56	=56	=56	=56
*	*	*	*^
1A]	1e]	1a]	1cc]	1ryy
*	*	*	*v	*v
1A	1e	1a	1cc
=57	=57	=57	=57
1F	1f	2a	1cc
.	.	2a	.
[1B-X	[1f	[1b-X	[1dd
=58	=58	=58	=58
1B-]	1f]	1b-]	1dd]
[1F	[1f	[1a	[1cc
=59	=59	=59	=59
1F]	1f]	1a]	1cc]
1F	1f	[1a	1ff
=60	=60	=60	=60
1F	1f	2a]	1ff
.	.	2b	.
[1c	[1g	[1cc	[1ee
=61	=61	=61	=61
1c]	1g]	1cc]	1ee]
1d	1f	2b	1dd
.	.	2a	.
=62	=62	=62	=62
*	*	*	*^
1A	0e	0a	1cc	1ryy
*	*	*	*v	*v
[1B	.	.	[1dd
=63	=63	=63	=63
1B]	1d	1g#i	1dd]
[1A	[1e	[1a	[1cc
=64	=64	=64	=64
1A]	1e]	1a]	1cc]
2r	2r	2r	2r
[2F	[2f	[2a	[2cc
=65	=65	=65	=65
2F]	2f]	2a]	2cc]
2F	2f	2a	2cc
[1F	[1f	[1a	(1cc
=66	=66	=66	=66
2F]	2f]	2a]	2cc)
2C	2e	2g	2cc
2D	[1d	[1f	(1a
2E	.	.	.
=67	=67	=67	=67
2F	1d]	1f]	1a)
2G	.	.	.
[1A	(1c	[1e	[1a
=68	=68	=68	=68
1A]	1c)	1e]	1a]
[1A	[1e	[1a	1r
=69	=69	=69	=69
2A]	2e]	1a]	0cc
2B	2d	.	.
1c	1e	1g	.
=70	=70	=70	=70
1d	1f	4f	1a
.	.	4g	.
.	.	1a	.
[1B	[1d	.	[1dd
.	.	4g	.
.	.	4f	.
=71	=71	=71	=71
1B]	1d]	1g	1dd]
[1A	[1e	[1a	[1cc
=72	=72	=72	=72
1A]	1e]	1a]	1cc]
2r	2r	2r	2r
[2F	[2f	[2a	[2cc
=73	=73	=73	=73
2F]	2f]	2a]	2cc]
2F	2f	2a	2cc
2F	2f	2a	2cc
2C	2e	2g	2cc
=74	=74	=74	=74
4D	1d	1f	1a
4E	.	.	.
4F	.	.	.
4G	.	.	.
2A	2c	2e	2a
[2A	[2e	[2a	[2cc
=75	=75	=75	=75
2A]	2e]	2a]	2cc]
2B	2d	4g	2dd
.	.	4f	.
2c	2e	2g	2cc
2d	2f	[2f	2a
=76	=76	=76	=76
1B	1d	4f]	0dd
.	.	4e	.
.	.	4f	.
.	.	4g	.
[1A	[1e	1a	.
=77	=77	=77	=77
1A]	1e]	1a	1cc#i
2.D	2.d	2.f	1dd
4E	8cL	4g	.
.	8BJ	.	.
=78	=78	=78	=78
4F	2A	4a	2r
4G	.	4b	.
4A	2a	4cc	2.cc
4B	.	4dd	.
2c	2g	2ee	.
.	.	.	4b
2d	2f	(2ff	[2a
=79	=79	=79	=79
1B	1d	4ff)	2a]
.	.	4ee	.
.	.	1dd	2g
1A	1e	.	[1a
.	.	2cc#i	.
=80	=80	=80	=80
1D	[0dl	1dd	0a_
1d	.	1r	.
=81	=81	=81	=81
2d	0d_	1dd	1a]
2c	.	.	.
2B	.	2dd	[1dd
2A	.	2cc	.
=82	=82	=82	=82
0G	0d_	2b	2dd]
.	.	2a	2cc
.	.	1g	2b
.	.	.	2a
=83	=83	=83	=83
1.G	0d_	1.b-X	2g
.	.	.	1g
2F	.	2a	2a
=84	=84	=84	=84
0G	0d_	0g	0b
=85	=85	=85	=85
00Dl	00d]	00fl	00al
==	==	==	==
*-	*-	*-	*-
!!!system-decoration: [*]
!!!RDF**kern: i = editorial accidental
!!!RDF**kern: l = terminal long
!!!ENC: Benjamin Ory
!!!END: 2021/9/6
!!!EED: Benjamin Ory
!!!EEV: 2021/09/06
!!!YEC: Copyright 2021 Benjamin Ory, All Rights Reserved
!!!ONB: Translated from MusicXML on 2021/09/06
